src/main/resources/icons/AllIcons/debugger/watch.svg

<!-- Copyright 2000-2021 JetBrains s.r.o. Use of this source code is governed by the Apache 2.0 license that can be found in the LICENSE file. -->
<svg xmlns="http://www.w3.org/2000/svg" width="16" height="16" viewBox="0 0 16 16">
  <path fill="#6E6E6E" fill-rule="evenodd" d="M0.179736323,8 L0,8 L0,6 L0.648541859,6 C0.792569748,5.78939057 0.977334025,5.6046684 1.21258499,5.45340916 C1.89147478,5.01690358 2.84282393,4.80340576 3.80258941,4.80340576 C4.7623549,4.80340576 5.61297416,4.92323536 6.29486737,5.37620045 C6.59582477,5.57611914 6.82299582,5.8162466 6.99402304,6.08548274 C7.30172541,6.02849425 7.63705107,6 8,6 C8.35505647,6 8.68367795,6.02726848 8.98586445,6.08180545 C9.15687191,5.81267937 9.3839914,5.57264613 9.68484764,5.37279464 C10.3667408,4.91982955 11.2173601,4.79999995 12.1771256,4.79999995 C13.1368911,4.79999995 14.0882402,5.01349777 14.76713,5.45000335 C15.0036482,5.6020774 15.1891344,5.78797587 15.3334972,6 L16,6 L16,8 L15.7999703,8 C15.7994439,8.19606049 15.791901,8.3950018 15.7802461,8.59456717 C15.6623706,10.6129418 14.2518204,12.1976877 12.1771256,12.1976877 C9.45452914,12.1976877 8.47999954,10.6964508 8.47999954,8.49884383 C8.47999954,8.23137539 8.48695862,7.96455981 8.50906465,7.70354864 C8.34721926,7.67896066 8.17753104,7.66666667 8,7.66666667 C7.81502913,7.66666667 7.6385722,7.68001266 7.4706292,7.70670465 C7.49275195,7.96779538 7.49971547,8.23469587 7.49971547,8.50224964 C7.49971547,10.6998566 6.52518588,12.2010935 3.80258941,12.2010935 C1.72789465,12.2010935 0.317344396,10.6163476 0.199468875,8.59797298 C0.187746524,8.39725195 0.180183904,8.19716222 0.179736323,8 Z M12.16191,10.6658488 C13.3863201,10.6658488 14.218776,9.73058887 14.2883419,8.53941695 C14.3319318,7.79302864 14.2780596,7.06143209 13.6904373,6.68360876 C13.289781,6.42599891 12.728329,6.30000019 12.16191,6.30000019 C11.5954911,6.30000019 11.0934862,6.3707193 10.6910574,6.63804296 C10.0650978,7.05385276 9.97999954,7.76439689 9.97999954,8.48292448 C9.97999954,9.77987289 10.5551318,10.6658488 12.16191,10.6658488 Z M3.81808963,10.6658488 C5.42486789,10.6658488 6.00000012,9.77987289 6.00000012,8.48292448 C6.00000012,7.76439689 5.91490188,7.05385276 5.28894221,6.63804296 C4.88651343,6.3707193 4.38450861,6.30000019 3.81808963,6.30000019 C3.25167064,6.30000019 2.69021867,6.42599891 2.2895624,6.68360876 C1.70194011,7.06143209 1.64806782,7.79302864 1.6916578,8.53941695 C1.76122368,9.73058887 2.59367958,10.6658488 3.81808963,10.6658488 Z"/>
</svg>

<svg xmlns="http://www.w3.org/2000/svg" width="16" height="16" viewBox="0 0 16 16"><rect id="frame" width="16" height="16" fill="none"/><path fill="#6E6E6E" fill-rule="evenodd" d="M.18 8H0V6h.649c.144-.21.328-.395.564-.547.678-.436 1.63-.65 2.59-.65s1.81.12 2.492.573c.3.2.528.44.699.71A5.532 5.532 0 0 1 8 6c.355 0 .684.027.986.082.17-.27.398-.51.699-.71.682-.452 1.532-.572 2.492-.572s1.911.213 2.59.65c.237.152.422.338.566.55H16v2h-.2c0 .196-.008.395-.02.595-.118 2.018-1.528 3.603-3.603 3.603-2.722 0-3.697-1.502-3.697-3.7 0-.267.007-.533.03-.794A3.388 3.388 0 0 0 8 7.667a3.37 3.37 0 0 0-.53.04c.023.26.03.528.03.795 0 2.198-.975 3.7-3.697 3.7-2.075 0-3.486-1.586-3.604-3.604-.011-.2-.019-.4-.02-.598zm11.982 2.666c1.224 0 2.057-.935 2.126-2.127.044-.746-.01-1.478-.598-1.855-.4-.258-.962-.384-1.528-.384-.567 0-1.069.07-1.47.338-.627.416-.712 1.126-.712 1.845 0 1.297.575 2.183 2.182 2.183zm-8.344 0C5.425 10.666 6 9.78 6 8.483c0-.719-.085-1.43-.711-1.845-.402-.267-.904-.338-1.47-.338-.567 0-1.129.126-1.53.384-.587.377-.64 1.109-.597 1.855.07 1.192.902 2.127 2.126 2.127z"/></svg>
